X:668
T:Soi Pastor
R:Tonada
C:Tradicional
S:Msica Tradicional Asturiana, (C) Tello & Tito. Asturies, 2001.
S:http://pagina.de/MusTradAst <telloytito@asturies.org>
N:posible errata del autor n'esti comps: |Bdd Bcd e3/2 f/8g/8f/8e/8d/8|
A:Asturies
B:Musicologa Asturiana - La Cancin Tradicional, Modesto Gonzlez Cobas
Z:La Cancin Tradicional, M.G.C.
M:3/4
L:1/8
Q:1/4=80
K:F
CC
|F3 G AB|A3/2B/4A/4 G2 CC|F3 G AB|A3/2B/4A/4 G2 (3GAB|
|c2 d3 c|Bc/B/ A4|B2 c2 AB/A/|G4 CC|
|F3 G AB|AB/2A/2 G2 CC|F3 G AB|AB/2A/2 G2 (3GAB|
|c2 d3 c|Bc/B/ A4|B2 c2 AB/A/|G4 z2||
|(3FFF (3AAA (3BB2|Bdd Bcd| e3/2 f/8g/8f/8e/8d/8|c6|
|cffdee|c3/2 d/8c/8B/8A/8 B3/2 c/8B/8A/8G/8 F E/F/|GABA GA/4G/4F/4E/4|F6|
W:soy pastor nac en el monte
W:soy pastor nac en el monte entre flor inorao viva el pastor
W:sin tener calor de nadie
W:sin tener calor de nadie a non ser el del ganao viva el amor
W:yo soy quien cuida la obeya quien escarmena la llana
W:pa facer bonos colchones mientras yo duermo en la paya
W:
